projects/oblique/icons/Inbox.svg

<?xml version="1.0" encoding="UTF-8"?><svg id="a" xmlns="http://www.w3.org/2000/svg" viewBox="0 0 24 24"><path d="M20.70773,3.75228l-.17578-.50244H3.4675l-.17578.50244s-1.96289,5.61621-1.99805,5.71826l-.04395,11.2793h21.5v-11.02783q0-.12891-2.04199-5.96973ZM4.53195,4.74984h14.93555c.32922.94287,1.04572,2.9917,1.47595,4.22217h-3.92224v2.30176H6.97922v-2.30176h-3.92468c.26843-.7627.71533-2.04102,1.47742-4.22217ZM2.74973,19.24984v-8.77783h2.72949v2.30176h13.04199v-2.30176h2.72852v8.77783H2.74973Z"/></svg>

<svg xmlns="http://www.w3.org/2000/svg" viewBox="0 0 24 24"><title>Inbox</title><path d="M20.70773,3.75228l-.17578-.50244H3.4675l-.17578.50244s-1.96289,5.61621-1.998,5.71826l-.04394,11.2793h21.5V9.722C22.74973,9.5931,22.74973,9.5931,20.70773,3.75228ZM4.532,4.74984H19.4675c.32922.94287,1.04571,2.9917,1.47595,4.22217H17.02121v2.30175H6.97922V8.972H3.05453C3.323,8.20931,3.76987,6.931,4.532,4.74984Zm-1.78222,14.5V10.472H5.47922v2.30175h13.042V10.472h2.72852v8.77783Z" fill="#171717"/></svg>
